img/telegram-dark.svg

<svg width="24" height="24" viewBox="0 0 24 24" fill="none" xmlns="http://www.w3.org/2000/svg">
<rect width="24" height="24" rx="12" fill="#F2F2ED"/>
<path d="M16.7999 7.56135L14.9966 16.9754C14.9966 16.9754 14.7443 17.6281 14.0512 17.315L9.89065 14.0116L9.87135 14.0018C10.4334 13.4792 14.7913 9.42161 14.9818 9.23768C15.2767 8.95283 15.0936 8.78325 14.7513 8.99843L8.31398 13.2318L5.83049 12.3665C5.83049 12.3665 5.43966 12.2225 5.40206 11.9095C5.36396 11.5959 5.84335 11.4264 5.84335 11.4264L15.9678 7.31338C15.9678 7.31338 16.7999 6.93477 16.7999 7.56135Z" fill="#0097AA"/>
</svg>

<svg width="24" height="24" fill="none" xmlns="http://www.w3.org/2000/svg"><rect width="24" height="24" rx="12" fill="#F2F2ED"/><path d="M16.8 7.561l-1.803 9.414s-.253.653-.946.34l-4.16-3.303-.02-.01c.562-.523 4.92-4.58 5.11-4.764.296-.285.113-.455-.23-.24l-6.437 4.234-2.484-.865s-.39-.145-.428-.458c-.038-.313.441-.483.441-.483l10.125-4.113s.832-.378.832.248z" fill="#0097AA"/></svg>
